dist/icons/svgs/turkish-lira-outline.svg

<svg xmlns="http://www.w3.org/2000/svg" width="24" height="24" fill="currentcolor" class="icon-turkish-lira-outline" viewBox="0 0 24 24">
  <path d="M8.43756 3.25C8.94538 3.25 9.37506 3.67969 9.37506 4.1875V6.41406L14.7266 4.85156C15.2344 4.73438 15.7423 5.00781 15.8985 5.51562C16.0157 6.02344 15.7423 6.53125 15.2344 6.6875L9.37506 8.36719V10.1641L14.7266 8.60156C15.2344 8.48438 15.7423 8.75781 15.8985 9.26562C16.0157 9.77344 15.7423 10.2812 15.2344 10.4375L9.37506 12.1172V18.875H12.1485C15.3516 18.875 17.9688 16.4141 18.086 13.2109L18.1251 12.8984C18.1251 12.3906 18.5548 12 19.1016 12C19.6094 12.0391 20.0001 12.4688 20.0001 13.0156L19.961 13.3281C19.7657 17.4688 16.3282 20.75 12.1485 20.75H8.43756C7.89069 20.75 7.50006 20.3594 7.50006 19.8125V12.625L6.48444 12.9375C5.97663 13.0547 5.46881 12.7812 5.31256 12.2734C5.19538 11.7656 5.46881 11.2578 5.97663 11.1016L7.50006 10.6719V8.875L6.48444 9.1875C5.97663 9.30469 5.46881 9.03125 5.31256 8.52344C5.19538 8.01562 5.46881 7.50781 5.97663 7.35156L7.50006 6.92188V4.1875C7.50006 3.67969 7.89069 3.25 8.43756 3.25Z"/>
</svg>

<svg xmlns="http://www.w3.org/2000/svg" width="24" height="24" fill="currentColor" class="icon-turkish-lira-outline" viewBox="0 0 24 24">
  <path d="M8.438 3.25a.95.95 0 0 1 .937.938v2.226l5.352-1.562a.98.98 0 0 1 1.172.664.98.98 0 0 1-.665 1.172l-5.859 1.68v1.796l5.352-1.562a.98.98 0 0 1 1.172.664.98.98 0 0 1-.665 1.172l-5.859 1.68v6.757h2.774c3.203 0 5.82-2.46 5.937-5.664l.04-.313c0-.507.429-.898.976-.898.507.04.898.469.898 1.016l-.039.312c-.195 4.14-3.633 7.422-7.812 7.422H8.438c-.547 0-.938-.39-.938-.937v-7.188l-1.016.313a.98.98 0 0 1-1.171-.665.98.98 0 0 1 .664-1.171l1.523-.43V8.875l-1.016.313a.98.98 0 0 1-1.171-.665.98.98 0 0 1 .664-1.171l1.523-.43V4.188c0-.508.39-.938.938-.938"/>
</svg>
